X: 258
T: Fang fengzheng
L: 1/8
M: 2/4
K: Bb
f A/ B< c f/ [I:setbarnb 1]| 
f A/ B/c2 | 
c f e f | 
f/ g/ f/ f/c2 | 
f A A B | 
c e d c | 
B A/ F/ F B | 
F4 |]

@@@ Tune index: 9132
